packages/sources/assets/src/assets/flag-ww.svg

<svg width="28" height="20" viewBox="0 0 28 20" fill="none" xmlns="http://www.w3.org/2000/svg">
<rect width="28" height="20" rx="2" fill="white"/>
<mask id="mask0_503_2731" style="mask-type:alpha" maskUnits="userSpaceOnUse" x="0" y="0" width="28" height="20">
<rect width="28" height="20" rx="2" fill="white"/>
</mask>
<g mask="url(#mask0_503_2731)">
<rect width="28" height="20" fill="#19BFBF"/>
<path fill-rule="evenodd" clip-rule="evenodd" d="M14 17.3333C18.0501 17.3333 21.3333 14.0501 21.3333 9.99999C21.3333 5.9499 18.0501 2.66666 14 2.66666C9.94992 2.66666 6.66667 5.9499 6.66667 9.99999C6.66667 14.0501 9.94992 17.3333 14 17.3333ZM19.9634 10.6667C19.7159 12.9058 18.2361 14.7736 16.2173 15.577C16.8674 14.2529 17.2472 12.528 17.3203 10.6667H19.9634ZM15.9857 10.6667C15.8883 12.9157 15.3011 14.9034 14.3855 15.9878C14.258 15.9959 14.1295 16 14 16C13.8705 16 13.742 15.9959 13.6145 15.9878C12.6989 14.9034 12.1117 12.9157 12.0144 10.6667H15.9857ZM10.6797 10.6667C10.7528 12.528 11.1326 14.2529 11.7827 15.577C9.76387 14.7736 8.28415 12.9058 8.03662 10.6667H10.6797ZM12.0144 9.33332H15.9857C15.8883 7.08428 15.3011 5.09656 14.3855 4.01218C14.258 4.00409 14.1295 3.99999 14 3.99999C13.8705 3.99999 13.742 4.00409 13.6145 4.01218C12.6989 5.09656 12.1117 7.08428 12.0144 9.33332ZM11.7827 4.42301C11.1326 5.74704 10.7528 7.47196 10.6797 9.33332H8.03662C8.28415 7.09416 9.76386 5.22636 11.7827 4.42301ZM19.9634 9.33332H17.3203C17.2472 7.47196 16.8674 5.74704 16.2173 4.42301C18.2361 5.22636 19.7159 7.09416 19.9634 9.33332Z" fill="white"/>
</g>
</svg>

<svg width="28" height="20" fill="none" xmlns="http://www.w3.org/2000/svg"><rect width="28" height="20" rx="2" fill="#fff"/><mask id="a" style="mask-type:alpha" maskUnits="userSpaceOnUse" x="0" y="0" width="28" height="20"><rect width="28" height="20" rx="2" fill="#fff"/></mask><g mask="url(#a)"><path fill="#19BFBF" d="M0 0h28v20H0z"/><path fill-rule="evenodd" clip-rule="evenodd" d="M14 17.333a7.333 7.333 0 1 0 0-14.666 7.333 7.333 0 0 0 0 14.666Zm5.963-6.666a6.006 6.006 0 0 1-3.746 4.91c.65-1.324 1.03-3.049 1.103-4.91h2.643Zm-3.977 0c-.098 2.249-.685 4.236-1.6 5.32a6.079 6.079 0 0 1-.771 0c-.916-1.084-1.503-3.071-1.6-5.32h3.97Zm-5.306 0c.073 1.861.453 3.586 1.103 4.91a6.006 6.006 0 0 1-3.746-4.91h2.643Zm1.334-1.334h3.972c-.098-2.249-.685-4.236-1.6-5.32a6.086 6.086 0 0 0-.771 0c-.916 1.084-1.503 3.071-1.6 5.32Zm-.231-4.91c-.65 1.324-1.03 3.049-1.103 4.91H8.037a6.006 6.006 0 0 1 3.746-4.91Zm8.18 4.91H17.32c-.073-1.861-.453-3.586-1.103-4.91a6.006 6.006 0 0 1 3.746 4.91Z" fill="#fff"/></g></svg>
